X: 1
T: Jack Daniel's Reel
C: John Morris Rankin
R: Reel
Z: 2014, 2015 John Chambers <jc:trillian.mit.edu>
B: BSFC Session Tune Book 2016 p.17 #1
S: Barbara McOwen (11/02,8/06)
D: K.Frasur & T.MacGillivray BH06
M: 4/4
L: 1/8
K: A
e |\
"A"a2ea f{g}aec | Acaf e2ce |\
[1,3 "D"fd ~d2 d2fd | "A"ec ~c2 "E7"cBB :|\
[2,4 "D"f2ec "A"e2fe | "E7"c2Bd "A"cAA :|
|: f |\
"A"ecBc AcBc | Acaf e2ce |\
"D"fdcd Adcd | "Bm"ABde "E7"fe ~e2 |
"A"fece "E7"Bece | "A"Acaf e2ce |\
"D"f2ec "A"e2fe | "E7"c2Bd "A"cAA :|[a2A2]
